X:253
T:Jig in G
B:Kerr's Merry Melodies Bk.4, p24
Z:Nigel Gatherer
M:6/8
L:1/8
K:G
D|BBB B2 D|BBB B2 d|gfe dcB|d2 c A2 B|ccc c2 D|
ccc c2 e|edB dcA|GBd g2::f|gfg agf|bag agf|gfg bag|
fdd def|gfg agf|gab bag|gab agf|g3- g2:|
<end>
<start>
